X: 86
T: Saint Anne's Reel
O:DM
R:reel
Z:2012 John Chambers <jc@trillian.mit.edu>
B:"100 Essential Irish Session Tunes" 1995 Dave Mallinson, ed.
M:4/4
L:1/8
K:D
de |\
"D"fedc "A7"edcB | "D"A2FA DAFA | "Em"B2GB EBGB | "D"A2FA DAFA |\
"D"fedc "A7"edcB | "D"A2FA DAFA | "Em"B2ed "A7"cABc | "G"dedc "D"d2 :|
|: de |\
"D"f2fe fdef | "G"gagf g2gf | "E7"edcB "A"Aceg | "E7"baa^g "A7"a2a=g |\
"D"f2fe fdef | "G"gagf g2gf | "E7"edcB "A"ABcd | "G"eddc "D"d2 :|

%%sep 2 1 500
%%sep 1 1 500

